!! Isochronous pitch passage.
!! Treble-line.
!! From Bartok, Mikrokosmos, Vol. 6, No. 150, measure 1ff
!! Piano
!! Passage contains 105 notes.
!! 5/8 meter (2+3)
**kern	**metpos
*M5/8	*M5/8
*tb8	*tb8
=1	=1
{8B	1
8c#}	3
{8d	2
8e	3
8c#}	3
=2	=2
{8B	1
8c#}	3
{8d	2
8e	3
8c#}	3
=3	=3
{8B	1
8c#}	3
{8d	2
8e	3
8c#}	3
=23	=23
{8B	1
8c#}	3
{8d	2
8e	3
8c#}	3
=24	=24
{8f	1
8e}	3
{8d	2
8e	3
8c#}	3
=25	=25
{8B	1
8c#}	3
{8d	2
8e	3
8c#}	3
=26	=26
{8gn	1
8e}	3
{8d	2
8e	3
8c#}	3
=27	=27
{8b-	1
8a}	3
{8dd-	2
8a-	3
8g-}	3
=28	=28
{8a-	1
8gn}	3
{8bn	2
8f#	3
8e}	3
=29	=29
{8f#	1
8fn}	3
{8a	2
8e	3
8d}	3
=30	=30
{8e	1
8e-}	3
{8a-	2
8d	3
8c}	3
=31	=31
{8r	1
8r}	3
{8r	2
8r	3
8r}	3
=48	=48
{8cc#	1
8dd}	3
{8dd#	2
8ee	3
8ddn}	3
=49	=49
{8ffn	1
8ee}	3
{8dd#	2
8ee	3
8ddn}	3
=50	=50
{8cc#	1
8dd}	3
{8dd#	2
8ee#	3
8een}	3
=51	=51
{8ff#	1
8ee#}	3
{8een	2
8ee#	3
8dd#}	3
=52	=52
{8ddn	1
8cc#}	3
{8b	2
8b#	3
8a#}	3
=53	=53
{8g#	1
8gn}	3
{8f#	2
8g	3
8f}	3
=54	=54
{8r	1
8r}	3
{8r	2
8A	3
8B}	3
=55	=55
{8c	1
8B-}	3
{8c#	2
8Bn	3
8d}	3
=56	=56
{8e-	1
8c}	3
{8en	2
8c#	3
8f}	3
=57	=57
{8f#	1
8d}	3
{8g	2
8e-	3
8g#}	3
=58	=58
*-	*-
